!!!COM: Palestrina, Giovanni Perluigi da
!!!OPR: Missa Ave Maria (1596)
!!!OTL: Kyrie
**kern	**kern	**kern	**kern	**kern	**kern
*Ibass	*Itenor	*Itenor	*Icalto	*Icalto	*Icant
!Bassus	!Tenor 2	!Tenor 1	!Altus 2	!Altus 1	!Cantus
*clefF4	*clefGv2	*clefGv2	*clefG2	*clefG2	*clefG2
*k[b-]	*k[b-]	*k[b-]	*k[b-]	*k[b-]	*k[b-]
*F:ion	*F:ion	*F:ion	*F:ion	*F:ion	*F:ion
*M4/2	*M4/2	*M4/2	*M4/2	*M4/2	*M4/2
=1	=1	=1	=1	=1	=1
0r	0r	0B-	0r	0r	0r
=2	=2	=2	=2	=2	=2
0r	0r	1A	0r	1r	0r
.	.	2.B-	.	[1f	.
.	.	4A	.	.	.
=3	=3	=3	=3	=3	=3
0r	0r	2F	0r	1f]	0r
.	.	2A	.	.	.
.	.	1G	.	1e	.
=4	=4	=4	=4	=4	=4
0r	0r	2.F	0r	2.f	0cc
.	.	4G	.	4e	.
.	.	4A	.	2c	.
.	.	4B	.	.	.
.	.	2c	.	2e	.
=5	=5	=5	=5	=5	=5
0r	0r	1G	0r	1d	1b-
.	.	2.A	.	2c	2.cc
.	.	.	.	2f	.
.	.	4B-	.	.	4b-
=6	=6	=6	=6	=6	=6
0r	0r	2c	1r	2e	2g
.	.	2G	.	2.d	2b-
.	.	[1d	[1f	.	[1a
.	.	.	.	4e	.
.	.	.	.	4f	.
.	.	.	.	4g	.
=7	=7	=7	=7	=7	=7
0r	0r	1d]	1f]	2a	2a]
.	.	.	.	2b-	4g
.	.	.	.	.	4f
.	.	2.c	1e	[1cc	1g
.	.	4B-	.	.	.
=8	=8	=8	=8	=8	=8
0F	0r	2A	2.f	2cc]	2.a
.	.	2F	.	2a	.
.	.	.	4e	.	4b-
.	.	2.A	2c	2a	[1cc
.	.	.	[2cc	2a	.
.	.	4B-	.	.	.
=9	=9	=9	=9	=9	=9
1E	0r	1c	4cc]	4g	1cc]
.	.	.	4b-	4f	.
.	.	.	2g	4e	.
.	.	.	.	4d	.
2.F	.	2A	2.a	4c	2r
.	.	.	.	4B-	.
.	.	[2c	.	2A	[2cc
4E	.	.	4g	.	.
=10	=10	=10	=10	=10	=10
2C	0r	2c]	2e	1G	4cc]
.	.	.	.	.	4b-
2E-	.	2.B-	2.g	.	2g
1D	.	.	.	1d	2b-
.	.	4A	4f	.	.
.	.	2F	[2f	.	2a
=11	=11	=11	=11	=11	=11
1C	1r	1G	2f]	2r	1cc
.	.	.	2e	2g	.
[1BB-	[1B-	2r	2.f	2b-	2.dd
.	.	[2d	.	2b-	.
.	.	.	4e	.	4ee
=12	=12	=12	=12	=12	=12
1BB-]	1B-]	2d]	1d	2.f	1ff
.	.	1f	.	.	.
.	.	.	.	4g	.
1F	[1A	.	1c	4a	1r
.	.	.	.	4b-	.
.	.	2f	.	[2cc	.
=13	=13	=13	=13	=13	=13
2F	1A_	2c	2r	4cc]	0ff
.	.	.	.	4b-	.
2F	.	2.f	2c	4a	.
.	.	.	.	4g	.
1D	1A_	.	2d	2.f	.
.	.	4e	.	.	.
.	.	[2d	2d	.	.
.	.	.	.	4g	.
=14	=14	=14	=14	=14	=14
1AA	1A]	2d]	1e	[0a	1ee
.	.	2c#	.	.	.
1D	[1A	2d	2d	.	2.ff
.	.	[2f	[2a	.	.
.	.	.	.	.	4ee
=15	=15	=15	=15	=15	=15
0r	1A]	4f]	4a]	1a]	2cc
.	.	4e	4b	.	.
.	.	2c	2.cc	.	2ee
.	1B-	2d	.	[1f	1dd
.	.	.	4b-	.	.
.	.	2B-	[2b-	.	.
=16	=16	=16	=16	=16	=16
1r	[0F	1c	2b-]	1f]	2cc
.	.	.	2a	.	2cc
1BB-	.	2B-	1b-	2r	2dd
.	.	[2d	.	[2f	2dd
=17	=17	=17	=17	=17	=17
2D	1F]	2d]	1a	2f]	0ff
2D	.	2d	.	2a	.
2.F	[1A	[1c	1f	2a	.
.	.	.	.	2cc	.
4G	.	.	.	.	.
=18	=18	=18	=18	=18	=18
4A	1A]	1c]	0r	4c	1ee
4B-	.	.	.	4d	.
1c	.	.	.	4e	.
.	.	.	.	4f	.
.	1G	1d	.	[1g	1r
4B-	.	.	.	.	.
4A	.	.	.	.	.
=19	=19	=19	=19	=19	=19
2.B-	1G	4G	1r	0g]	1dd
.	.	4A	.	.	.
.	.	4B-	.	.	.
4A	.	4c	.	.	.
[1G	[1B-	2.d	2r	.	2dd
.	.	.	2B-	.	2g
.	.	4c	.	.	.
=20	=20	=20	=20	=20	=20
1G]	1B-]	2B-	2d	1r	1b-
.	.	2G	2d	.	.
1F	[1c	[1A	4f	2r	1a
.	.	.	4g	.	.
.	.	.	4a	2f	.
.	.	.	4b-	.	.
=21	=21	=21	=21	=21	=21
0F	0c]	1A]	1cc	2a	2r
.	.	.	.	2a	2f
.	.	2r	1f	2.cc	2a
.	.	2F	.	.	2a
.	.	.	.	4b-	.
=22	=22	=22	=22	=22	=22
1F	[0c	2A	1f	1a	2.cc
.	.	2A	.	.	.
.	.	.	.	.	4dd
1C	.	4c	2.e	2g	4ee
.	.	4d	.	.	4ff
.	.	4e	.	4c	[2gg
.	.	4f	4d	4d	.
=23	=23	=23	=23	=23	=23
2.C	0c]	2g	4c	4e	4gg]
.	.	.	4d	4f	4ff
.	.	2.c	4e	1g	4ee
4D	.	.	4f	.	4dd
2E	.	.	2g	.	[1cc
.	.	4B-	.	.	.
2F	.	2A	[2f	2c	.
=24	=24	=24	=24	=24	=24
0C	[0c	0G	2f]	0g	0cc]
.	.	.	4e	.	.
.	.	.	4d	.	.
.	.	.	1e	.	.
=25	=25	=25	=25	=25	=25
0F	0c]	0F	0f	0a	0cc
=26	=26	=26	=26	=26	=26
0r	0r	0r	1r	0r	0cc
.	.	.	[1f	.	.
=27	=27	=27	=27	=27	=27
0r	0r	0r	1f]	0r	1dd
.	.	.	1g	.	1ee
=28	=28	=28	=28	=28	=28
0r	0r	0r	1a	0r	1ff
.	.	.	[1b-	.	2dd
.	.	.	.	.	4b-
.	.	.	.	.	4cc
=29	=29	=29	=29	=29	=29
0r	0r	1r	2b-]	0r	4dd
.	.	.	.	.	4ee
.	.	.	2a	.	1ff
.	.	[1c	1g	.	.
.	.	.	.	.	2ee
=30	=30	=30	=30	=30	=30
0F	0r	1c]	1.a	0r	0ff
.	.	1d	.	.	.
.	.	.	2a	.	.
=31	=31	=31	=31	=31	=31
1G	0r	1e	4g	0r	1r
.	.	.	4f	.	.
.	.	.	4e	.	.
.	.	.	4d	.	.
1A	.	1f	2c	.	1cc
.	.	.	[2f	.	.
=32	=32	=32	=32	=32	=32
0B-	0r	2d	4f]	0f	2.dd
.	.	.	4e	.	.
.	.	4B-	2.d	.	.
.	.	4c	.	.	4ee
.	.	4d	.	.	1ff
.	.	4e	4c	.	.
.	.	[2f	4B-	.	.
.	.	.	4A	.	.
=33	=33	=33	=33	=33	=33
1G	0r	2f]	1B-	1g	2.b-
.	.	2e	.	.	.
.	.	.	.	.	4cc
1F	.	1f	2A	1a	2dd
.	.	.	2a	.	2cc
=34	=34	=34	=34	=34	=34
1r	0r	1B-	2g	1b-	1dd
.	.	.	1f	.	.
[1C	.	[1c	.	1g	2cc
.	.	.	4e	.	[2g
.	.	.	4d	.	.
=35	=35	=35	=35	=35	=35
1C]	0r	1c]	1e	2.cc	2g]
.	.	.	.	.	1a
.	.	.	.	4b-	.
1D	.	1F	2f	4a	.
.	.	.	.	4g	.
.	.	.	2d	2f	2b-
=36	=36	=36	=36	=36	=36
1E	1r	1G	0c	4e	1cc
.	.	.	.	4c	.
.	.	.	.	2.cc	.
1F	[1f	1A	.	.	1a
.	.	.	.	4b-	.
.	.	.	.	4a	.
.	.	.	.	4g	.
=37	=37	=37	=37	=37	=37
1D	1f]	1B	1d	4f	1dd
.	.	.	.	4e	.
.	.	.	.	2d	.
1C	[1e	2c	1G	2g	2ee
.	.	2G	.	[2c	2ee
=38	=38	=38	=38	=38	=38
2.AA	1e_	1A	1c	4c]	2ee
.	.	.	.	4d	.
.	.	.	.	1e	4cc
4BB	.	.	.	.	4dd
[1C	1e_	1G	2r	.	4ee
.	.	.	.	.	4ff
.	.	.	2g	2c	2gg
=39	=39	=39	=39	=39	=39
0C]	1e]	[0c	2a	1r	2r
.	.	.	2g	.	2g
.	[1e	.	2cc	2r	2a
.	.	.	[2c	2g	2g
=40	=40	=40	=40	=40	=40
2r	1e]	1c]	4c]	2a	1cc
.	.	.	4d	.	.
2C	.	.	2e	2g	.
2D	1f	2.F	2d	2f	2a
2BB-	.	.	[2f	2d	2b-
.	.	4G	.	.	.
=41	=41	=41	=41	=41	=41
1F	[0c	1A	4f]	2r	1cc
.	.	.	4g	.	.
.	.	.	4a	1f	.
.	.	.	4b-	.	.
2C	.	1G	[1cc	.	2r
2C	.	.	.	2e	2g
=42	=42	=42	=42	=42	=42
4F	1c]	1F	2cc]	2f	2a
4G	.	.	.	.	.
4A	.	.	2a	2.e	2.cc
4B-	.	.	.	.	.
1c	[1e	1r	1g	.	.
.	.	.	.	4d	4dd
.	.	.	.	4c	4ee
.	.	.	.	4d	4ff
=43	=43	=43	=43	=43	=43
1C	1e]	1r	2r	4e	2gg
.	.	.	.	4f	.
.	.	.	2g	4g	2cc
.	.	.	.	4e	.
1r	1d	2r	2a	2f	[1dd
.	.	[2G	2b-	2g	.
=44	=44	=44	=44	=44	=44
2r	1d	4G]	2B-	1b-	2dd]
.	.	4A	.	.	.
2G	.	2B-	2d	.	2b-
2A	[1f	2F	2c	2a	2cc
2B-	.	[2f	2B-	2f	[2dd
=45	=45	=45	=45	=45	=45
2F	1f]	4f]	2.c	1a	4dd]
.	.	4e	.	.	4cc
2A	.	2c	.	.	1cc
.	.	.	4A	.	.
1G	[1g	1d	2B-	2r	.
.	.	.	2G	2d	2b-
=46	=46	=46	=46	=46	=46
1C	0g]	1c	2r	2.e-	1cc
.	.	.	2c	.	.
.	.	.	.	8d	.
.	.	.	.	8c	.
2r	.	1G	2d	2B-	2r
2C	.	.	2e-	2c	2cc
=47	=47	=47	=47	=47	=47
2G	[0g	1G	2B-	2r	2dd
2C	.	.	1c	2c	1ee-
1G	.	1G	.	1d	.
.	.	.	2B-	.	[2dd
=48	=48	=48	=48	=48	=48
1C	1g_	0G	2c	1e-	4dd]
.	.	.	.	.	4cc
.	.	.	2.g	.	1cc
1G	1g_	.	.	1d	.
.	.	.	4f	.	.
.	.	.	2d	.	2b
=49	=49	=49	=49	=49	=49
0C	0g]	0G	0e	0c	0cc
=50	=50	=50	=50	=50	=50
0r	0r	1r	0r	0r	1cc
.	.	1f	.	.	2a
.	.	.	.	.	2cc
=51	=51	=51	=51	=51	=51
0r	0r	2d	0r	1f	2b-
.	.	2.f	.	.	2.a
.	.	.	.	2d	.
.	.	4e	.	.	4g
.	.	2d	.	2f	4a
.	.	.	.	.	4b
=52	=52	=52	=52	=52	=52
0r	0r	2c	[0g	2e	2cc
.	.	2B	.	2d	2.dd
.	.	1c	.	1e	.
.	.	.	.	.	4cc
.	.	.	.	.	[2cc
=53	=53	=53	=53	=53	=53
1r	0r	1G	1g]	2d	2cc]
.	.	.	.	1g	2b
1c	.	1r	2e	.	[1cc
.	.	.	2g	2e	.
=54	=54	=54	=54	=54	=54
2A	0r	1c	2f	2a	0cc]
2.c	.	.	2.e	2g	.
.	.	2A	.	1a	.
4B	.	.	4d	.	.
2A	.	2c	4e	.	.
.	.	.	4f#	.	.
=55	=55	=55	=55	=55	=55
2G	0r	2B-	2g	[0d	0dd
2F#	.	2A	1a	.	.
1G	.	1B-	.	.	.
.	.	.	2g	.	.
=56	=56	=56	=56	=56	=56
0D	0r	2A	0a	1d]	1ff
.	.	1f	.	.	.
.	.	.	.	2r	2dd
.	.	2d	.	2f	[2ff
=57	=57	=57	=57	=57	=57
2r	0r	1f	2r	2d	4ff]
.	.	.	.	.	4ee
2B-	.	.	1b-	2.B-	4dd
.	.	.	.	.	4cc
2G	.	1B-	.	.	[1dd
.	.	.	.	4c	.
[2B-	.	.	2f	2d	.
=58	=58	=58	=58	=58	=58
4B-]	0r	2G	1g	4B-	2dd]
4A	.	.	.	4c	.
2G	.	2B-	.	4d	2b-
.	.	.	.	4B-	.
2F	.	2A	2a	2f	[1cc
2E	.	[2c	[2g	2g	.
=59	=59	=59	=59	=59	=59
1F	0r	4c]	2g]	2a	0cc]
.	.	4B-	.	.	.
.	.	2A	1f	2f	.
1C	.	1G	.	2g	.
.	.	.	2e	2cc	.
=60	=60	=60	=60	=60	=60
1D	1r	1F	0f	1a	2r
.	.	.	.	.	2ff
[1BB-	[1B-	2r	.	1b-	2dd
.	.	2f	.	.	[2ff
=61	=61	=61	=61	=61	=61
1BB-]	1B-]	2d	1r	0f	4ff]
.	.	.	.	.	4ee
.	.	2.f	.	.	2dd
1F	[1A	.	1a	.	2cc
.	.	4e	.	.	.
.	.	2c	.	.	2f
=62	=62	=62	=62	=62	=62
2D	1A_	2d	1f	1a	1.ff
2.F	.	2A	.	.	.
.	1A_	2c	1a	1f	.
4E	.	.	.	.	.
2D	.	2d	.	.	2ff
=63	=63	=63	=63	=63	=63
2C#	1A]	2e	0a	2r	2ee
2D	.	2f	.	2.a	1dd
1AA	[1A	1e	.	.	.
.	.	.	.	4g	.
.	.	.	.	2e	2cc#
=64	=64	=64	=64	=64	=64
1D	1A]	2d	1a	2f	0dd
.	.	2f	.	1d	.
1BB-	1B-	2d	2r	.	.
.	.	[2f	2f	2B-	.
=65	=65	=65	=65	=65	=65
1BB-	[0F	4f]	2d	1b-	1r
.	.	4e	.	.	.
.	.	2d	2.f	.	.
2.F	.	[1c	.	2a	1cc
.	.	.	4g	.	.
.	.	.	4a	2a	.
4G	.	.	4b-	.	.
=66	=66	=66	=66	=66	=66
1A	1F]	1c]	1cc	2f	1a
.	.	.	.	2.a	.
1F	[1A	1c	2.a	.	2.cc
.	.	.	.	4g	.
.	.	.	.	2f	.
.	.	.	4b-	.	4b-
=67	=67	=67	=67	=67	=67
0r	1A]	1c	1cc	2e	4a
.	.	.	.	.	4g
.	.	.	.	2f	2a
.	1G	1d	2r	[1g	2b-
.	.	.	2b-	.	2g
=68	=68	=68	=68	=68	=68
2r	1G	2e-	2g	1g]	2r
2B-	.	2d	2.b-	.	2dd
2G	[1B-	[1d	.	2r	2b-
.	.	.	4a	.	.
[2B-	.	.	2g	4G	[2dd
.	.	.	.	4A	.
=69	=69	=69	=69	=69	=69
4B-]	1B-]	1d]	2f	4B-	4dd]
4A	.	.	.	4c	4cc
2G	.	.	2g	4d	2b-
.	.	.	.	4e	.
2F	[1c	2r	2a	2f	2a
2E	.	2c	[2cc	[2g	2g
=70	=70	=70	=70	=70	=70
1F	0c]	2A	4cc]	4g]	2.a
.	.	.	4b-	4f	.
.	.	2F	2a	1f	.
.	.	.	.	.	4b-
1C	.	1G	1g	.	1cc
.	.	.	.	2e	.
=71	=71	=71	=71	=71	=71
2r	[0c	1F	1cc	1f	2a
2A	.	.	.	.	1cc
2F	.	2r	2a	2r	.
[2A	.	2c	[2cc	[2e	2a
=72	=72	=72	=72	=72	=72
4A]	0c]	2A	4cc]	2e]	1cc
4G	.	.	4b-	.	.
2F	.	2.c	2a	2f	.
2E	.	.	2g	2g	1cc
.	.	4B-	.	.	.
2F	.	2A	[2f	2c	.
=73	=73	=73	=73	=73	=73
0C	[0c	0G	2f]	0g	0cc
.	.	.	4e	.	.
.	.	.	4d	.	.
.	.	.	1e	.	.
=74	=74	=74	=74	=74	=74
0F	0c]	0F	0f	0a	0cc
==	==	==	==	==	==
*-	*-	*-	*-	*-	*-
!!!CDT: 1525/^1526/-1594/2/2
!!!OCY: Italia
!!!AGN: Mass (Tenor)
!!!AST: renaissance, vocal
!!!ASW: Motet 1563 (Palestrina)
!!!PWK: Masses, Book 6
!!!RNB: Cadence finals: C
!!!YOR: Le Opere Complete, v. 21, p. 142
!!!YOO: Rome, Italy: Fratelli Scalera
!!!END: 1992//
!!!EED: John Miller
!!!YEC: Copyright 2000, John Miller
!!!YEN: United States of America
!!!YEM: Rights to all derivative electronic formats reserved.
!!!YEM: Refer to licensing agreement for further details.
!!!YEM: This file must be accompanied by the licensing agreement.
!!!YEM: A copy of the licensing agreement may be found at http://www.music-cog.ohio-state.edu/HumdrumDatabases/Palestrina/license.txt
!!!EMD: converted to Humdrum by Bret Aarden
